SVG/magic.svg

<?xml version="1.0" encoding="utf-8"?>
<!-- Generated by IcoMoon.io -->
<!DOCTYPE svg PUBLIC "-//W3C//DTD SVG 1.1//EN" "http://www.w3.org/Graphics/SVG/1.1/DTD/svg11.dtd">
<svg version="1.1" xmlns="http://www.w3.org/2000/svg" xmlns:xlink="http://www.w3.org/1999/xlink" width="13" height="14" viewBox="0 0 13 14">
<path fill="#444444" d="M9.297 4.539l2.289-2.289-0.836-0.836-2.289 2.289zM12.789 2.25q0 0.211-0.141 0.352l-10.047 10.047q-0.141 0.141-0.352 0.141t-0.352-0.141l-1.547-1.547q-0.141-0.141-0.141-0.352t0.141-0.352l10.047-10.047q0.141-0.141 0.352-0.141t0.352 0.141l1.547 1.547q0.141 0.141 0.141 0.352zM2.234 0.766l0.766 0.234-0.766 0.234-0.234 0.766-0.234-0.766-0.766-0.234 0.766-0.234 0.234-0.766zM4.969 2.031l1.531 0.469-1.531 0.469-0.469 1.531-0.469-1.531-1.531-0.469 1.531-0.469 0.469-1.531zM12.234 5.766l0.766 0.234-0.766 0.234-0.234 0.766-0.234-0.766-0.766-0.234 0.766-0.234 0.234-0.766zM7.234 0.766l0.766 0.234-0.766 0.234-0.234 0.766-0.234-0.766-0.766-0.234 0.766-0.234 0.234-0.766z"></path>
</svg>

<svg xmlns="http://www.w3.org/2000/svg" viewBox="0 0 13 14"><path d="M9.297 4.54l2.29-2.29-.837-.836-2.29 2.29zm3.492-2.29q0 .21-.142.352L2.6 12.65q-.14.14-.35.14t-.353-.14L.35 11.1q-.14-.14-.14-.352t.14-.352L10.397.35q.14-.14.352-.14t.35.14L12.65 1.9q.14.14.14.352zM2.233.766L3 1l-.766.234L2 2l-.234-.766L1 1l.766-.234L2 0zM4.97 2.03l1.53.47-1.53.47L4.5 4.5l-.47-1.53L2.5 2.5l1.53-.47L4.5.5zm7.264 3.736L13 6l-.766.234L12 7l-.234-.766L11 6l.766-.234L12 5zm-5-5L8 1l-.766.234L7 2l-.234-.766L6 1l.766-.234L7 0z" /></svg>
